X:136
T:Swede's Hall
C:A. Ferrante
M:2/4
L:1/16
K:D
af|defg La2gf|eABc d2.A.A|.dLf2d e2z2|.eLg2e f2df|La2fd A2af|
dfaf d2ef|g2.g.f .eLa2f|Lgfea d2::fe|d2>A2 d2gf|e2>B2 e2ag|f2d2 f2.d.f|
.aLa2a Lb2.b.a|.gLg2.e La2gf|.e.e.a.a .d.d.f.f|a2.g.f .eLa2f|Lgfea d2:|
